material/.icons/material/alpha-o.svg

<svg xmlns="http://www.w3.org/2000/svg" viewBox="0 0 24 24"><path d="M11 7a2 2 0 00-2 2v6a2 2 0 002 2h2a2 2 0 002-2V9a2 2 0 00-2-2h-2m0 2h2v6h-2V9z"/></svg>

<?xml version="1.0" encoding="UTF-8"?><!DOCTYPE svg PUBLIC "-//W3C//DTD SVG 1.1//EN" "http://www.w3.org/Graphics/SVG/1.1/DTD/svg11.dtd"><svg xmlns="http://www.w3.org/2000/svg" xmlns:xlink="http://www.w3.org/1999/xlink" version="1.1" id="mdi-alpha-o" width="24" height="24" viewBox="0 0 24 24"><path d="M11,7A2,2 0 0,0 9,9V15A2,2 0 0,0 11,17H13A2,2 0 0,0 15,15V9A2,2 0 0,0 13,7H11M11,9H13V15H11V9Z" /></svg>
